front/icons/favicon.svg

<svg width="1000" height="1000" fill="none" xmlns="http://www.w3.org/2000/svg"><path fill="#5489D0" d="M0 0h1000v1000H0z"/><path d="M144.778 748V253.455h316.819v75.099H234.366v134.261h205.498v75.1H234.366V748h-89.588zm476.677-217.33V748H534.04V377.091h83.551v63.025h4.347c8.532-20.767 22.135-37.268 40.809-49.502 18.835-12.235 42.098-18.353 69.787-18.353 25.597 0 47.893 5.474 66.889 16.421 19.158 10.947 33.968 26.804 44.432 47.571 10.625 20.767 15.857 45.961 15.696 75.582V748h-87.415V525.358c0-24.792-6.439-44.19-19.318-58.196-12.718-14.006-30.345-21.009-52.883-21.009-15.294 0-28.897 3.381-40.81 10.142-11.752 6.601-21.009 16.179-27.77 28.736-6.6 12.557-9.9 27.77-9.9 45.639z" fill="#fff"/></svg>

<svg width="1000" height="1000" viewBox="0 0 1000 1000" fill="none" xmlns="http://www.w3.org/2000/svg">
<rect width="1000" height="1000" fill="#5489D0"/>
<path d="M144.778 748V253.455H461.597V328.554H234.366V462.815H439.864V537.915H234.366V748H144.778ZM621.455 530.67V748H534.04V377.091H617.591V440.116H621.938C630.47 419.349 644.073 402.848 662.747 390.614C681.582 378.379 704.845 372.261 732.534 372.261C758.131 372.261 780.427 377.735 799.423 388.682C818.581 399.629 833.391 415.486 843.855 436.253C854.48 457.02 859.712 482.214 859.551 511.835V748H772.136V525.358C772.136 500.566 765.697 481.168 752.818 467.162C740.1 453.156 722.473 446.153 699.935 446.153C684.641 446.153 671.038 449.534 659.125 456.295C647.373 462.896 638.116 472.474 631.355 485.031C624.755 497.588 621.455 512.801 621.455 530.67Z" fill="white"/>
</svg>
